icons/boy_0105y.svg

<svg width="48" height="48" viewBox="0 0 48 48" fill="none" xmlns="http://www.w3.org/2000/svg">
<path fill-rule="evenodd" clip-rule="evenodd" d="M34.4678 20.9481C34.3287 20.4136 33.7826 20.0932 33.2481 20.2323C29.5862 21.1859 26.7824 21.6256 24.0039 21.6145C21.2223 21.6033 18.4147 21.1403 14.7407 20.2295C14.2047 20.0966 13.6624 20.4234 13.5295 20.9595C13.3966 21.4955 13.7234 22.0378 14.2595 22.1707C16.421 22.7065 18.3269 23.1005 20.1318 23.3404L21 23.4559V28.9374L20.0077 36.8759C19.9407 37.4121 20.3118 37.9046 20.8458 37.988C21.3797 38.0713 21.8833 37.7154 21.9829 37.1842L23.4829 29.1842C23.4941 29.1242 23.4998 29.0639 23.5 29.0039H25.5C25.5002 29.0639 25.5059 29.1242 25.5171 29.1842L27.0171 37.1842C27.1167 37.7154 27.6203 38.0713 28.1542 37.988C28.6882 37.9046 29.0593 37.4121 28.9923 36.8759L28 28.9379V23.3575L28.8437 23.224C30.3625 22.9836 31.9698 22.6319 33.7521 22.1678C34.2865 22.0286 34.607 21.4826 34.4678 20.9481ZM32.7441 18.2969C34.3475 17.8794 35.9858 18.8407 36.4033 20.4441C36.8208 22.0475 35.8594 23.6858 34.2561 24.1033C32.7481 24.4959 31.3444 24.8148 30 25.0566V28.8134L30.9768 36.6278C31.1779 38.2365 30.0645 39.714 28.4627 39.964C26.8609 40.2141 25.3502 39.1463 25.0514 37.5528L24.5 34.6121L23.9486 37.5528C23.6498 39.1463 22.1391 40.2141 20.5373 39.964C18.9355 39.714 17.8221 38.2365 18.0232 36.6278L19 28.8129V25.1976C17.3604 24.9425 15.6482 24.5755 13.7782 24.1119C12.1701 23.7133 11.1896 22.0864 11.5882 20.4782C11.9869 18.87 13.6138 17.8895 15.222 18.2882C18.824 19.1812 21.4572 19.6043 24.0119 19.6145C26.5575 19.6247 29.1789 19.2252 32.7441 18.2969Z" fill="black"/>
<path fill-rule="evenodd" clip-rule="evenodd" d="M24 10C22.3432 10 21 11.3431 21 13C21 14.6569 22.3432 16 24 16C25.6569 16 27 14.6569 27 13C27 11.3431 25.6569 10 24 10ZM19 13C19 10.2386 21.2386 8 24 8C26.7615 8 29 10.2386 29 13C29 15.7614 26.7615 18 24 18C21.2386 18 19 15.7614 19 13Z" fill="black"/>
</svg>

<svg
  xmlns="http://www.w3.org/2000/svg"
  width="24"
  height="24"
  viewBox="0 0 24 24"
  fill="none"
  stroke="currentColor"
  stroke-width="2"
  stroke-linecap="round"
  stroke-linejoin="round"
>
  <path
    fill-rule="evenodd"
    d="M34.468 20.948a1 1 0 0 0-1.22-.716c-3.662.954-6.466 1.394-9.244 1.383-2.782-.012-5.59-.475-9.263-1.385a1 1 0 1 0-.482 1.94c2.162.536 4.068.93 5.873 1.17l.868.116v5.481l-.992 7.939a1 1 0 0 0 1.975.308l1.5-8a1 1 0 0 0 .017-.18h2a1 1 0 0 0 .017.18l1.5 8a1 1 0 0 0 1.975-.308L28 28.938v-5.58l.844-.134c1.518-.24 3.126-.592 4.908-1.056a1 1 0 0 0 .716-1.22m-1.724-2.651a3 3 0 0 1 1.512 5.806 57 57 0 0 1-4.256.954v3.756l.977 7.815a3 3 0 0 1-5.926.925l-.551-2.94-.551 2.94a3 3 0 0 1-5.926-.925L19 28.813v-3.615c-1.64-.256-3.352-.622-5.222-1.086a3 3 0 0 1 1.444-5.824c3.602.893 6.235 1.316 8.79 1.326 2.546.01 5.167-.389 8.732-1.317"
    clip-rule="evenodd"
  />
  <path
    fill-rule="evenodd"
    d="M24 10a3 3 0 1 0 0 6 3 3 0 0 0 0-6m-5 3a5 5 0 1 1 10 0 5 5 0 0 1-10 0"
    clip-rule="evenodd"
  />
</svg>
